X: 124
M: C|
L: 1/8
K: D
|:\
d>ef>d B/B/B e2 | d>ef>d g>ef>d |\
g>ef>d B/B/B e2 | d>BA>G D/D/D D2 :|
|:\
d>BA>G F>Ad>g | f>de>f d/d/d d2 :|

